X:1
T:Title
%%score { ( 1 3 ) | ( 2 4 ) }
L:1/8
M:4/4
K:C
V:1 treble nm="Grand Piano"
V:3 treble 
V:2 bass 
V:4 bass 
V:1
 z4 z2[Q:1/4=108] [EG]2 | [EG]2 [CE][DF] [EG]2 [Ec]2 | [Fc]3 [FB] [FB]2 [DA]2 | %3
 [EG]2 [EA]2 [DF]2 [DG]2 |[M:3/4] [CE]6 |[M:1/4] [EG]2 |[M:4/4] [EG]2 [CE][DF] [EG]2 [Ec]2 | %7
 [DB]3 [Dc] [Gd]2 [DGB]2 | [EGc]2 [GB]2 [^FB]2 [FA]2 |[M:3/4] G6 |[M:1/4] G2 |[M:4/4] F3 E F2 A2 | %12
 z4 z2 G2 | z2 c2 z2 .e2 |[M:3/4] c4 B2 |[M:1/4] [DGB]2 |[M:4/4] [CGc]2 [GB][FA] [EG]2 E2 | %17
 E3 D C2 D2 | %18
 [CE]2 [CG]2 [B,E]2 [B,D]2[Q:1/4=106][Q:1/4=105][Q:1/4=103][Q:1/4=101][Q:1/4=100][Q:1/4=98][Q:1/4=96][Q:1/4=95][Q:1/4=93][Q:1/4=91][Q:1/4=89][Q:1/4=88][Q:1/4=86][Q:1/4=84][Q:1/4=83] | %19
[M:3/4] C6 |] %20
V:2
 z4 z2 [C,C]2 | [C,C]2 [C,G,]2 [C,C]2 [C,G,]2 | [D,G,]3 [D,G,] [D,G,]2 [F,B,]2 | %3
 [E,C]2 [^C,A,]2 [D,A,]2 [B,,G,]2 |[M:3/4] [C,G,]6 |[M:1/4] [C,C]2 | %6
[M:4/4] [C,C]2 [C,G,]2 [C,C]2 [C,G,]2 | [D,G,]3 [D,A,] [D,B,]2 D,2 | D,2 [D,D]2 [D,D]2 [D,C]2 | %9
[M:3/4] [G,B,]6 |[M:1/4][K:treble] [G,E]2 |[M:4/4] [G,B,D]3 [G,_B,^C] [G,=B,D]2 [G,B,F]2 | %12
 [C,C]2 [C,G,]2 [C,C]2 [CE]2 | [A,CE]2 .[A,CA]2 [D,C]2 [D,D]2 |[M:3/4][K:treble] E4 z2 | %15
[M:1/4][K:bass] F,2 |[M:4/4] E,2 [F,C]2 [C,C]2 [C,G,C]2 | [E,^G,B,]3 [E,G,B,] [A,,A,]2 [D,^F,C]2 | %18
 [G,,G,]2 [G,,E,]2 [G,,G,]2 [G,,F,]2 |[M:3/4] [C,E,]6 |] %20
V:3
 x8 | x8 | x8 | x8 |[M:3/4] x6 |[M:1/4] x2 |[M:4/4] x8 | x8 | x8 |[M:3/4] x6 |[M:1/4] x2 | %11
[M:4/4] x8 | [EG]2 [CE]2 [EG]2 z B, | c2 z G [^Fc]2 F-[Fd] |[M:3/4] x6 |[M:1/4] x2 |[M:4/4] x8 | %17
 x8 | x8 |[M:3/4] x6 |] %20
V:4
 x8 | x8 | x8 | x8 |[M:3/4] x6 |[M:1/4] x2 |[M:4/4] x8 | x8 | x8 |[M:3/4] x6 | %10
[M:1/4][K:treble] x2 |[M:4/4] x8 | x8 | x8 |[M:3/4][K:treble] [G,G]4- [G,DG]2 |[M:1/4][K:bass] x2 | %16
[M:4/4] x8 | x8 | x8 |[M:3/4] x6 |] %20

